X: 21724
T: DUCHESS OF BUCCLEUCH
C: Neil Gow.
R: Strathspey
B: W. Hamilton "Universal Tune-Book" Vol. 2 Glasgow 1846 p.173 #4 (and p.173 #1)
S: http://s3-eu-west-1.amazonaws.com/itma.dl.printmaterial/book_pdfs/hamiltonvol2web.pdf
Z: 2016 John Chambers <jc:trillian.mit.edu>
M: C
L: 1/16
K: A
% - - - - - - - - - - - - - - - - - - - - - - - - -
(ed) |\
c2A2A2c2 a2A2A2=c2 | B2=G2 GAB=c d4 d2(ed) |\
c2A2A2c2 a2A2A2c2 | e3c ABcd e4 e2 :| fg |\
a3fg3e f3de3c | d=cBA =GABc d4 d2f^g | a3fg3e f3de2c |
edcB ABcd e4 e2(fg) | agfa gfeg fedf edce |\
dcBA =GABc d4 d2(ed) |\
c2A2A2c2 a2A2A2c2 | e3c ABcd e4e2 |]
% - - - - - - - - - - - - - - - - - - - - - - - - -

% (Continued from previous page)

%%sep 1 1 500
%%sep 1 1 500

